X: 1626
T: the Fair Maidens   #2
%S: s:2 b:15(6+7)
R: hornpipe, reel
B: O'Neills 1626
O: F.O'Neill
Z: Nick Terhorst, nickte@microsoft.com
N: Compacted via repeats and multiple endings [JC]
M: C|
L: 1/8
K: G
D2 \
"^A"|:   GDGA BGBd | gfed cBAG | ABcd ecA [1,3 G | FGAF D2DF :|[2,4 F | G2~GF G2 :|
"^B"|: FG | ADFD ADFD | cABG A2GA | BDGD BDGD | dBcA B2 ||
|| A2 "^A2"| GDGA BGBd | gfed cBAG | ABcd edAF | G2~GF G2 :|
